docs/local/img/index-cat/d.svg

<svg width="395" height="448" viewBox="0 0 395 448" fill="none" xmlns="http://www.w3.org/2000/svg"><path opacity=".05" fill-rule="evenodd" clip-rule="evenodd" d="M0 448h164.16C325.101 448 395 344.322 395 224 395 123.523 348.831 0 164.16 0H0v448zm125.684-110.132V110.126a2.61 2.61 0 01.767-1.843 2.625 2.625 0 011.847-.766h11.465c124.376 0 125.684 91.523 125.684 116.483 0 23.04-1.284 116.477-125.684 116.477h-11.465a2.62 2.62 0 01-2.614-2.609z" fill="#000"/></svg>

<svg width="395" height="448" viewBox="0 0 395 448" fill="none" xmlns="http://www.w3.org/2000/svg">
<path opacity="0.05" fill-rule="evenodd" clip-rule="evenodd" d="M0 448H164.16C325.101 448 395 344.322 395 224C395 123.523 348.831 0 164.16 0H0V448ZM125.684 337.868V110.126C125.685 109.435 125.961 108.772 126.451 108.283C126.941 107.794 127.605 107.519 128.298 107.517H139.763C264.139 107.517 265.447 199.04 265.447 224C265.447 247.04 264.163 340.477 139.763 340.477H128.298C127.605 340.476 126.941 340.2 126.451 339.711C125.961 339.222 125.685 338.559 125.684 337.868Z" fill="black"/>
</svg>
